src/pos-icons/image-off.svg

<svg height="24" viewBox="0 0 24 24" width="24" xmlns="http://www.w3.org/2000/svg"><path d="m21 17.2-14.2-14.2h12.2c1.1 0 2 .9 2 2zm-.3 4.8-1-1h-14.7c-1.1 0-2-.9-2-2v-14.7l-1-1 1.3-1.3 18.7 18.7zm-3.9-4-3.9-3.9-1.9 2.4-2.5-3-3.5 4.5z"/></svg>

<?xml version="1.0" encoding="UTF-8"?><!DOCTYPE svg PUBLIC "-//W3C//DTD SVG 1.1//EN" "http://www.w3.org/Graphics/SVG/1.1/DTD/svg11.dtd"><svg xmlns="http://www.w3.org/2000/svg" xmlns:xlink="http://www.w3.org/1999/xlink" version="1.1" id="mdi-image-off" width="24" height="24" viewBox="0 0 24 24"><path d="M21 17.2L6.8 3H19C20.1 3 21 3.9 21 5V17.2M20.7 22L19.7 21H5C3.9 21 3 20.1 3 19V4.3L2 3.3L3.3 2L22 20.7L20.7 22M16.8 18L12.9 14.1L11 16.5L8.5 13.5L5 18H16.8Z" /></svg>
